(Generated by rollingmill.arc_test -- arc-direction diagnostic)
(Plus #1 @ (0,0): legs ascending from Z=-10 to centre Z=0)
(Plus #2 @ (50,0): legs descending from centre Z=0 to Z=-10)
(r=20 perimeter circles at Z=-2)
(Cut into a 10 mm wooden board raised clear of the bed.)
%
O00000001
G21
G90
G17
G54
F300.0
S10000
M03
G00 Z5.0
(=================================================================)
(PLUS #1 @ (0,0): legs ascending from leg-end Z=-10 to centre Z=0)
(=================================================================)
(--- NORTH leg (Y+20): G19 G03 quarter-arc in YZ plane ---)
G00 X0.0 Y20.0
G00 Z1.0
G01 Z-10.0 F100.0
G19 G03 Y10.0 Z0.0 J-10.0 K0.0 F300.0
G17
G01 Y0.0
G00 Z5.0
(--- SOUTH leg (Y-20): G19 G02 quarter-arc in YZ plane ---)
G00 X0.0 Y-20.0
G00 Z1.0
G01 Z-10.0 F100.0
G19 G02 Y-10.0 Z0.0 J10.0 K0.0 F300.0
G17
G01 Y0.0
G00 Z5.0
(--- EAST leg (X+20): G18 G02 quarter-arc in XZ plane ---)
G00 X20.0 Y0.0
G00 Z1.0
G01 Z-10.0 F100.0
G18 G02 X10.0 Z0.0 I-10.0 K0.0 F300.0
G17
G01 X0.0
G00 Z5.0
(--- WEST leg (X-20): G18 G03 quarter-arc in XZ plane ---)
G00 X-20.0 Y0.0
G00 Z1.0
G01 Z-10.0 F100.0
G18 G03 X-10.0 Z0.0 I10.0 K0.0 F300.0
G17
G01 X0.0
G00 Z5.0
(=================================================================)
(PLUS #2 @ (50,0): legs descending from centre Z=0 to leg-end Z=-10)
(Same physical paths as plus #1, arcs traversed in reverse.)
(=================================================================)
(--- NORTH leg (reversed): G19 G02 ---)
G00 X50.0 Y0.0
G00 Z1.0
G01 Z0.0 F100.0
G01 Y10.0 F300.0
G19 G02 Y20.0 Z-10.0 J0.0 K-10.0
G17
G00 Z5.0
(--- SOUTH leg (reversed): G19 G03 ---)
G00 X50.0 Y0.0
G00 Z1.0
G01 Z0.0 F100.0
G01 Y-10.0 F300.0
G19 G03 Y-20.0 Z-10.0 J0.0 K-10.0
G17
G00 Z5.0
(--- EAST leg (reversed): G18 G03 ---)
G00 X50.0 Y0.0
G00 Z1.0
G01 Z0.0 F100.0
G01 X60.0 F300.0
G18 G03 X70.0 Z-10.0 I0.0 K-10.0
G17
G00 Z5.0
(--- WEST leg (reversed): G18 G02 ---)
G00 X50.0 Y0.0
G00 Z1.0
G01 Z0.0 F100.0
G01 X40.0 F300.0
G18 G02 X30.0 Z-10.0 I0.0 K-10.0
G17
G00 Z5.0
(=================================================================)
(PERIMETERS: r=20 circle from four 90 deg arcs around each)
(plus, both at Z=-2. CCW (G03) around plus #1,)
(CW (G02) around plus #2, so the two cuts are visibly separated.)
(=================================================================)
(--- CCW pass around plus #1 (centre 0,0) at Z=-2 ---)
G00 X20.0 Y0.0
G00 Z1.0
G01 Z-2.0 F100.0
G03 X0.0 Y20.0 I-20.0 J0.0 F400.0
G03 X-20.0 Y0.0 I0.0 J-20.0
G03 X0.0 Y-20.0 I20.0 J0.0
G03 X20.0 Y0.0 I0.0 J20.0
G00 Z5.0
(--- CW pass around plus #2 (centre 50,0) at Z=-2 ---)
G00 X70.0 Y0.0
G00 Z1.0
G01 Z-2.0 F100.0
G02 X50.0 Y-20.0 I-20.0 J0.0 F400.0
G02 X30.0 Y0.0 I0.0 J20.0
G02 X50.0 Y20.0 I20.0 J0.0
G02 X70.0 Y0.0 I0.0 J-20.0
G00 Z5.0
(=================================================================)
G00 Z10.0
M05
M30
