(Generated by rollingmill.maze)
(Size: 100 x 100 mm, cell: 4 mm, wall: 1.7 mm)
(Seed: 42, endpoints: outline)
%
O00000001
G21
G90
G17
F200.0
S10000
M03
G00 Z2.0
G00 X4.348 Y95.652
G01 Z-0.1 F50.0
F200.0
G01 X13.043 Y95.652
G01 X13.043 Y91.304
G01 X0.0 Y91.304
G01 X0.0 Y100.0
G01 X21.739 Y100.0
G01 X21.739 Y95.652
G00 Z2.0
G00 X21.739 Y100.0
G01 Z-0.1 F50.0
F200.0
G01 X39.13 Y100.0
G01 X39.13 Y95.652
G01 X47.826 Y95.652
G01 X47.826 Y86.957
G01 X56.522 Y86.957
G01 X56.522 Y95.652
G01 X52.174 Y95.652
G01 X52.174 Y91.304
G00 Z2.0
G00 X17.391 Y95.652
G01 Z-0.1 F50.0
F200.0
G01 X17.391 Y91.304
G01 X26.087 Y91.304
G01 X26.087 Y95.652
G01 X34.783 Y95.652
G01 X34.783 Y91.304
G00 Z2.0
G00 X39.13 Y100.0
G01 Z-0.1 F50.0
F200.0
G01 X73.913 Y100.0
G01 X73.913 Y95.652
G01 X65.217 Y95.652
G01 X65.217 Y91.304
G01 X60.87 Y91.304
G00 Z2.0
G00 X56.522 Y95.652
G01 Z-0.1 F50.0
F200.0
G01 X60.87 Y95.652
G00 Z2.0
G00 X73.913 Y100.0
G01 Z-0.1 F50.0
F200.0
G01 X100.0 Y100.0
G01 X100.0 Y82.609
G01 X91.304 Y82.609
G01 X91.304 Y86.957
G01 X95.652 Y86.957
G01 X95.652 Y95.652
G01 X82.609 Y95.652
G00 Z2.0
G00 X39.13 Y95.652
G01 Z-0.1 F50.0
F200.0
G01 X39.13 Y86.957
G01 X30.435 Y86.957
G01 X30.435 Y91.304
G00 Z2.0
G00 X69.565 Y91.304
G01 Z-0.1 F50.0
F200.0
G01 X78.261 Y91.304
G01 X78.261 Y95.652
G00 Z2.0
G00 X78.261 Y91.304
G01 Z-0.1 F50.0
F200.0
G01 X82.609 Y91.304
G01 X82.609 Y82.609
G01 X86.957 Y82.609
G01 X86.957 Y91.304
G01 X91.304 Y91.304
G00 Z2.0
G00 X0.0 Y91.304
G01 Z-0.1 F50.0
F200.0
G01 X0.0 Y56.522
G01 X4.348 Y56.522
G01 X4.348 Y60.87
G01 X8.696 Y60.87
G01 X8.696 Y73.913
G01 X4.348 Y73.913
G01 X4.348 Y82.609
G00 Z2.0
G00 X4.348 Y86.957
G01 Z-0.1 F50.0
F200.0
G01 X17.391 Y86.957
G01 X17.391 Y91.304
G00 Z2.0
G00 X21.739 Y91.304
G01 Z-0.1 F50.0
F200.0
G01 X21.739 Y73.913
G01 X17.391 Y73.913
G00 Z2.0
G00 X34.783 Y82.609
G01 Z-0.1 F50.0
F200.0
G01 X26.087 Y82.609
G01 X26.087 Y86.957
G01 X30.435 Y86.957
G00 Z2.0
G00 X43.478 Y91.304
G01 Z-0.1 F50.0
F200.0
G01 X43.478 Y82.609
G01 X39.13 Y82.609
G01 X39.13 Y78.261
G01 X30.435 Y78.261
G01 X30.435 Y73.913
G01 X21.739 Y73.913
G00 Z2.0
G00 X56.522 Y86.957
G01 Z-0.1 F50.0
F200.0
G01 X60.87 Y86.957
G01 X60.87 Y73.913
G01 X65.217 Y73.913
G01 X65.217 Y86.957
G01 X73.913 Y86.957
G01 X73.913 Y91.304
G00 Z2.0
G00 X8.696 Y86.957
G01 Z-0.1 F50.0
F200.0
G01 X8.696 Y78.261
G01 X17.391 Y78.261
G01 X17.391 Y82.609
G00 Z2.0
G00 X13.043 Y86.957
G01 Z-0.1 F50.0
F200.0
G01 X13.043 Y82.609
G00 Z2.0
G00 X47.826 Y86.957
G01 Z-0.1 F50.0
F200.0
G01 X47.826 Y78.261
G01 X43.478 Y78.261
G01 X43.478 Y73.913
G00 Z2.0
G00 X39.13 Y78.261
G01 Z-0.1 F50.0
F200.0
G01 X39.13 Y69.565
G01 X47.826 Y69.565
G01 X47.826 Y73.913
G01 X52.174 Y73.913
G01 X52.174 Y82.609
G01 X56.522 Y82.609
G01 X56.522 Y60.87
G00 Z2.0
G00 X73.913 Y86.957
G01 Z-0.1 F50.0
F200.0
G01 X73.913 Y82.609
G00 Z2.0
G00 X78.261 Y86.957
G01 Z-0.1 F50.0
F200.0
G01 X78.261 Y78.261
G01 X69.565 Y78.261
G01 X69.565 Y82.609
G00 Z2.0
G00 X26.087 Y82.609
G01 Z-0.1 F50.0
F200.0
G01 X26.087 Y78.261
G00 Z2.0
G00 X78.261 Y78.261
G01 Z-0.1 F50.0
F200.0
G01 X82.609 Y78.261
G00 Z2.0
G00 X86.957 Y82.609
G01 Z-0.1 F50.0
F200.0
G01 X86.957 Y73.913
G01 X78.261 Y73.913
G00 Z2.0
G00 X91.304 Y78.261
G01 Z-0.1 F50.0
F200.0
G01 X95.652 Y78.261
G01 X95.652 Y69.565
G01 X91.304 Y69.565
G01 X91.304 Y73.913
G01 X86.957 Y73.913
G00 Z2.0
G00 X100.0 Y82.609
G01 Z-0.1 F50.0
F200.0
G01 X100.0 Y52.174
G01 X95.652 Y52.174
G01 X95.652 Y47.826
G01 X82.609 Y47.826
G01 X82.609 Y52.174
G00 Z2.0
G00 X13.043 Y78.261
G01 Z-0.1 F50.0
F200.0
G01 X13.043 Y65.217
G01 X17.391 Y65.217
G01 X17.391 Y69.565
G00 Z2.0
G00 X34.783 Y73.913
G01 Z-0.1 F50.0
F200.0
G01 X39.13 Y73.913
G00 Z2.0
G00 X65.217 Y73.913
G01 Z-0.1 F50.0
F200.0
G01 X69.565 Y73.913
G00 Z2.0
G00 X73.913 Y78.261
G01 Z-0.1 F50.0
F200.0
G01 X73.913 Y69.565
G01 X65.217 Y69.565
G01 X65.217 Y65.217
G00 Z2.0
G00 X4.348 Y73.913
G01 Z-0.1 F50.0
F200.0
G01 X4.348 Y65.217
G00 Z2.0
G00 X21.739 Y69.565
G01 Z-0.1 F50.0
F200.0
G01 X30.435 Y69.565
G01 X30.435 Y73.913
G00 Z2.0
G00 X60.87 Y73.913
G01 Z-0.1 F50.0
F200.0
G01 X60.87 Y60.87
G01 X69.565 Y60.87
G01 X69.565 Y65.217
G00 Z2.0
G00 X82.609 Y65.217
G01 Z-0.1 F50.0
F200.0
G01 X78.261 Y65.217
G01 X78.261 Y60.87
G01 X73.913 Y60.87
G01 X73.913 Y69.565
G01 X86.957 Y69.565
G01 X86.957 Y65.217
G01 X91.304 Y65.217
G01 X91.304 Y60.87
G01 X95.652 Y60.87
G01 X95.652 Y56.522
G01 X91.304 Y56.522
G01 X91.304 Y52.174
G01 X86.957 Y52.174
G01 X86.957 Y56.522
G01 X82.609 Y56.522
G01 X82.609 Y60.87
G01 X86.957 Y60.87
G00 Z2.0
G00 X21.739 Y65.217
G01 Z-0.1 F50.0
F200.0
G01 X34.783 Y65.217
G01 X34.783 Y69.565
G00 Z2.0
G00 X34.783 Y65.217
G01 Z-0.1 F50.0
F200.0
G01 X43.478 Y65.217
G01 X43.478 Y60.87
G01 X52.174 Y60.87
G01 X52.174 Y69.565
G00 Z2.0
G00 X47.826 Y69.565
G01 Z-0.1 F50.0
F200.0
G01 X47.826 Y65.217
G00 Z2.0
G00 X95.652 Y69.565
G01 Z-0.1 F50.0
F200.0
G01 X95.652 Y65.217
G00 Z2.0
G00 X8.696 Y60.87
G01 Z-0.1 F50.0
F200.0
G01 X13.043 Y60.87
G01 X13.043 Y56.522
G01 X17.391 Y56.522
G00 Z2.0
G00 X17.391 Y65.217
G01 Z-0.1 F50.0
F200.0
G01 X17.391 Y60.87
G01 X21.739 Y60.87
G01 X21.739 Y56.522
G01 X30.435 Y56.522
G01 X30.435 Y52.174
G01 X39.13 Y52.174
G01 X39.13 Y60.87
G00 Z2.0
G00 X26.087 Y65.217
G01 Z-0.1 F50.0
F200.0
G01 X26.087 Y60.87
G01 X34.783 Y60.87
G01 X34.783 Y56.522
G00 Z2.0
G00 X39.13 Y56.522
G01 Z-0.1 F50.0
F200.0
G01 X47.826 Y56.522
G01 X47.826 Y52.174
G01 X56.522 Y52.174
G00 Z2.0
G00 X52.174 Y60.87
G01 Z-0.1 F50.0
F200.0
G01 X52.174 Y56.522
G01 X60.87 Y56.522
G01 X60.87 Y60.87
G00 Z2.0
G00 X65.217 Y56.522
G01 Z-0.1 F50.0
F200.0
G01 X73.913 Y56.522
G01 X73.913 Y60.87
G00 Z2.0
G00 X78.261 Y52.174
G01 Z-0.1 F50.0
F200.0
G01 X78.261 Y56.522
G01 X82.609 Y56.522
G00 Z2.0
G00 X0.0 Y56.522
G01 Z-0.1 F50.0
F200.0
G01 X0.0 Y47.826
G01 X4.348 Y47.826
G01 X4.348 Y52.174
G01 X8.696 Y52.174
G01 X8.696 Y56.522
G00 Z2.0
G00 X8.696 Y47.826
G01 Z-0.1 F50.0
F200.0
G01 X8.696 Y52.174
G01 X21.739 Y52.174
G01 X21.739 Y56.522
G00 Z2.0
G00 X60.87 Y56.522
G01 Z-0.1 F50.0
F200.0
G01 X60.87 Y52.174
G01 X65.217 Y52.174
G00 Z2.0
G00 X69.565 Y56.522
G01 Z-0.1 F50.0
F200.0
G01 X69.565 Y47.826
G01 X65.217 Y47.826
G00 Z2.0
G00 X21.739 Y52.174
G01 Z-0.1 F50.0
F200.0
G01 X21.739 Y47.826
G01 X17.391 Y47.826
G00 Z2.0
G00 X26.087 Y52.174
G01 Z-0.1 F50.0
F200.0
G01 X26.087 Y43.478
G01 X13.043 Y43.478
G01 X13.043 Y47.826
G00 Z2.0
G00 X30.435 Y47.826
G01 Z-0.1 F50.0
F200.0
G01 X39.13 Y47.826
G01 X39.13 Y39.13
G01 X34.783 Y39.13
G00 Z2.0
G00 X43.478 Y52.174
G01 Z-0.1 F50.0
F200.0
G01 X43.478 Y47.826
G01 X52.174 Y47.826
G01 X52.174 Y52.174
G00 Z2.0
G00 X60.87 Y52.174
G01 Z-0.1 F50.0
F200.0
G01 X60.87 Y47.826
G01 X56.522 Y47.826
G01 X56.522 Y43.478
G01 X47.826 Y43.478
G00 Z2.0
G00 X73.913 Y52.174
G01 Z-0.1 F50.0
F200.0
G01 X73.913 Y47.826
G01 X82.609 Y47.826
G00 Z2.0
G00 X100.0 Y52.174
G01 Z-0.1 F50.0
F200.0
G01 X100.0 Y43.478
G01 X82.609 Y43.478
G01 X82.609 Y34.783
G01 X69.565 Y34.783
G01 X69.565 Y26.087
G01 X65.217 Y26.087
G01 X65.217 Y21.739
G01 X60.87 Y21.739
G00 Z2.0
G00 X0.0 Y47.826
G01 Z-0.1 F50.0
F200.0
G01 X0.0 Y39.13
G01 X4.348 Y39.13
G01 X4.348 Y34.783
G01 X13.043 Y34.783
G01 X13.043 Y39.13
G00 Z2.0
G00 X4.348 Y43.478
G01 Z-0.1 F50.0
F200.0
G01 X13.043 Y43.478
G00 Z2.0
G00 X26.087 Y43.478
G01 Z-0.1 F50.0
F200.0
G01 X34.783 Y43.478
G00 Z2.0
G00 X43.478 Y47.826
G01 Z-0.1 F50.0
F200.0
G01 X43.478 Y39.13
G01 X47.826 Y39.13
G01 X47.826 Y34.783
G01 X60.87 Y34.783
G00 Z2.0
G00 X52.174 Y43.478
G01 Z-0.1 F50.0
F200.0
G01 X52.174 Y39.13
G01 X60.87 Y39.13
G01 X60.87 Y43.478
G01 X65.217 Y43.478
G00 Z2.0
G00 X69.565 Y47.826
G01 Z-0.1 F50.0
F200.0
G01 X69.565 Y43.478
G01 X73.913 Y43.478
G00 Z2.0
G00 X78.261 Y47.826
G01 Z-0.1 F50.0
F200.0
G01 X78.261 Y39.13
G01 X69.565 Y39.13
G01 X69.565 Y43.478
G00 Z2.0
G00 X8.696 Y43.478
G01 Z-0.1 F50.0
F200.0
G01 X8.696 Y39.13
G00 Z2.0
G00 X17.391 Y43.478
G01 Z-0.1 F50.0
F200.0
G01 X17.391 Y39.13
G01 X26.087 Y39.13
G00 Z2.0
G00 X30.435 Y43.478
G01 Z-0.1 F50.0
F200.0
G01 X30.435 Y34.783
G01 X34.783 Y34.783
G00 Z2.0
G00 X56.522 Y30.435
G01 Z-0.1 F50.0
F200.0
G01 X56.522 Y26.087
G01 X60.87 Y26.087
G01 X60.87 Y30.435
G01 X65.217 Y30.435
G01 X65.217 Y39.13
G01 X69.565 Y39.13
G00 Z2.0
G00 X86.957 Y34.783
G01 Z-0.1 F50.0
F200.0
G01 X86.957 Y39.13
G01 X91.304 Y39.13
G01 X91.304 Y21.739
G01 X86.957 Y21.739
G01 X86.957 Y26.087
G01 X73.913 Y26.087
G01 X73.913 Y30.435
G00 Z2.0
G00 X100.0 Y43.478
G01 Z-0.1 F50.0
F200.0
G01 X100.0 Y0.0
G01 X82.609 Y0.0
G01 X82.609 Y4.348
G01 X78.261 Y4.348
G00 Z2.0
G00 X0.0 Y39.13
G01 Z-0.1 F50.0
F200.0
G01 X0.0 Y26.087
G01 X4.348 Y26.087
G01 X4.348 Y30.435
G00 Z2.0
G00 X4.348 Y17.391
G01 Z-0.1 F50.0
F200.0
G01 X17.391 Y17.391
G01 X17.391 Y34.783
G01 X26.087 Y34.783
G01 X26.087 Y30.435
G01 X30.435 Y30.435
G01 X30.435 Y34.783
G00 Z2.0
G00 X39.13 Y39.13
G01 Z-0.1 F50.0
F200.0
G01 X39.13 Y34.783
G01 X43.478 Y34.783
G01 X43.478 Y26.087
G01 X39.13 Y26.087
G00 Z2.0
G00 X95.652 Y39.13
G01 Z-0.1 F50.0
F200.0
G01 X95.652 Y17.391
G01 X82.609 Y17.391
G01 X82.609 Y21.739
G00 Z2.0
G00 X13.043 Y34.783
G01 Z-0.1 F50.0
F200.0
G01 X13.043 Y30.435
G01 X8.696 Y30.435
G00 Z2.0
G00 X39.13 Y34.783
G01 Z-0.1 F50.0
F200.0
G01 X39.13 Y30.435
G01 X34.783 Y30.435
G01 X34.783 Y26.087
G01 X21.739 Y26.087
G01 X21.739 Y30.435
G00 Z2.0
G00 X47.826 Y34.783
G01 Z-0.1 F50.0
F200.0
G01 X47.826 Y30.435
G01 X52.174 Y30.435
G00 Z2.0
G00 X82.609 Y34.783
G01 Z-0.1 F50.0
F200.0
G01 X82.609 Y30.435
G01 X78.261 Y30.435
G00 Z2.0
G00 X82.609 Y30.435
G01 Z-0.1 F50.0
F200.0
G01 X86.957 Y30.435
G00 Z2.0
G00 X4.348 Y26.087
G01 Z-0.1 F50.0
F200.0
G01 X8.696 Y26.087
G00 Z2.0
G00 X13.043 Y30.435
G01 Z-0.1 F50.0
F200.0
G01 X13.043 Y21.739
G01 X4.348 Y21.739
G00 Z2.0
G00 X43.478 Y26.087
G01 Z-0.1 F50.0
F200.0
G01 X52.174 Y26.087
G01 X52.174 Y21.739
G00 Z2.0
G00 X69.565 Y26.087
G01 Z-0.1 F50.0
F200.0
G01 X73.913 Y26.087
G00 Z2.0
G00 X0.0 Y26.087
G01 Z-0.1 F50.0
F200.0
G01 X0.0 Y13.043
G01 X4.348 Y13.043
G01 X4.348 Y8.696
G01 X13.043 Y8.696
G00 Z2.0
G00 X21.739 Y26.087
G01 Z-0.1 F50.0
F200.0
G01 X21.739 Y17.391
G01 X30.435 Y17.391
G01 X30.435 Y21.739
G00 Z2.0
G00 X26.087 Y26.087
G01 Z-0.1 F50.0
F200.0
G01 X26.087 Y21.739
G00 Z2.0
G00 X34.783 Y26.087
G01 Z-0.1 F50.0
F200.0
G01 X34.783 Y21.739
G00 Z2.0
G00 X30.435 Y17.391
G01 Z-0.1 F50.0
F200.0
G01 X30.435 Y13.043
G01 X34.783 Y13.043
G01 X34.783 Y17.391
G01 X39.13 Y17.391
G01 X39.13 Y21.739
G01 X47.826 Y21.739
G01 X47.826 Y17.391
G01 X56.522 Y17.391
G01 X56.522 Y26.087
G00 Z2.0
G00 X65.217 Y21.739
G01 Z-0.1 F50.0
F200.0
G01 X69.565 Y21.739
G00 Z2.0
G00 X78.261 Y26.087
G01 Z-0.1 F50.0
F200.0
G01 X78.261 Y21.739
G00 Z2.0
G00 X56.522 Y17.391
G01 Z-0.1 F50.0
F200.0
G01 X73.913 Y17.391
G01 X73.913 Y21.739
G00 Z2.0
G00 X73.913 Y13.043
G01 Z-0.1 F50.0
F200.0
G01 X73.913 Y17.391
G01 X82.609 Y17.391
G00 Z2.0
G00 X8.696 Y17.391
G01 Z-0.1 F50.0
F200.0
G01 X8.696 Y13.043
G01 X13.043 Y13.043
G00 Z2.0
G00 X17.391 Y17.391
G01 Z-0.1 F50.0
F200.0
G01 X17.391 Y13.043
G01 X26.087 Y13.043
G01 X26.087 Y8.696
G01 X39.13 Y8.696
G01 X39.13 Y13.043
G01 X43.478 Y13.043
G01 X43.478 Y17.391
G00 Z2.0
G00 X43.478 Y13.043
G01 Z-0.1 F50.0
F200.0
G01 X60.87 Y13.043
G01 X60.87 Y8.696
G01 X56.522 Y8.696
G01 X56.522 Y0.0
G01 X39.13 Y0.0
G01 X39.13 Y4.348
G01 X52.174 Y4.348
G01 X52.174 Y8.696
G00 Z2.0
G00 X60.87 Y4.348
G01 Z-0.1 F50.0
F200.0
G01 X65.217 Y4.348
G01 X65.217 Y13.043
G01 X69.565 Y13.043
G01 X69.565 Y8.696
G00 Z2.0
G00 X65.217 Y4.348
G01 Z-0.1 F50.0
F200.0
G01 X73.913 Y4.348
G01 X73.913 Y8.696
G01 X78.261 Y8.696
G01 X78.261 Y13.043
G01 X91.304 Y13.043
G00 Z2.0
G00 X95.652 Y17.391
G01 Z-0.1 F50.0
F200.0
G01 X95.652 Y8.696
G01 X91.304 Y8.696
G00 Z2.0
G00 X0.0 Y13.043
G01 Z-0.1 F50.0
F200.0
G01 X0.0 Y0.0
G01 X21.739 Y0.0
G01 X21.739 Y8.696
G00 Z2.0
G00 X17.391 Y13.043
G01 Z-0.1 F50.0
F200.0
G01 X17.391 Y4.348
G01 X13.043 Y4.348
G00 Z2.0
G00 X39.13 Y8.696
G01 Z-0.1 F50.0
F200.0
G01 X47.826 Y8.696
G00 Z2.0
G00 X78.261 Y8.696
G01 Z-0.1 F50.0
F200.0
G01 X86.957 Y8.696
G01 X86.957 Y4.348
G01 X95.652 Y4.348
G01 X95.652 Y8.696
G00 Z2.0
G00 X8.696 Y8.696
G01 Z-0.1 F50.0
F200.0
G01 X8.696 Y4.348
G01 X4.348 Y4.348
G00 Z2.0
G00 X21.739 Y4.348
G01 Z-0.1 F50.0
F200.0
G01 X30.435 Y4.348
G00 Z2.0
G00 X34.783 Y8.696
G01 Z-0.1 F50.0
F200.0
G01 X34.783 Y4.348
G00 Z2.0
G00 X21.739 Y0.0
G01 Z-0.1 F50.0
F200.0
G01 X39.13 Y0.0
G00 Z2.0
G00 X56.522 Y0.0
G01 Z-0.1 F50.0
F200.0
G01 X82.609 Y0.0
G00 Z2.0
G00 X97.076 Y50.75
G01 Z-0.1 F50.0
F200.0
G01 X98.576 Y50.75
G01 X98.576 Y49.25
G01 X97.076 Y49.25
G01 X97.076 Y50.75
G00 Z2.0
G00 X1.424 Y50.75
G01 Z-0.1 F50.0
F200.0
G01 X2.924 Y50.75
G01 X2.924 Y49.25
G01 X1.424 Y49.25
G01 X1.424 Y50.75
G00 Z2.0
G00 Z2.0
M05
M30
