(Generated by utils/text_to_gcode.py)
(Text: 'Parcels')
(Font: roman_triplex, cap height: 25.0 mm, scale: 1.19)
%
O00000001
G21
G90
G17
G54
F200.0
S10000
M03
G00 Z6.0
G00 X5.952 Y25.0
G01 Z-2.0 F150.0
F200.0
G01 X5.952 Y0.0
G00 Z6.0
G00 X7.143 Y23.81
G01 Z-2.0 F150.0
F200.0
G01 X7.143 Y1.19
G00 Z6.0
G00 X8.333 Y25.0
G01 Z-2.0 F150.0
F200.0
G01 X8.333 Y0.0
G00 Z6.0
G00 X2.381 Y25.0
G01 Z-2.0 F150.0
F200.0
G01 X16.667 Y25.0
G01 X20.238 Y23.81
G01 X21.429 Y22.619
G01 X22.619 Y20.238
G01 X22.619 Y16.667
G01 X21.429 Y14.286
G01 X20.238 Y13.095
G01 X16.667 Y11.905
G01 X8.333 Y11.905
G00 Z6.0
G00 X20.238 Y22.619
G01 Z-2.0 F150.0
F200.0
G01 X21.429 Y20.238
G01 X21.429 Y16.667
G01 X20.238 Y14.286
G00 Z6.0
G00 X16.667 Y25.0
G01 Z-2.0 F150.0
F200.0
G01 X19.048 Y23.81
G01 X20.238 Y21.429
G01 X20.238 Y15.476
G01 X19.048 Y13.095
G01 X16.667 Y11.905
G00 Z6.0
G00 X2.381 Y0.0
G01 Z-2.0 F150.0
F200.0
G01 X11.905 Y0.0
G00 Z6.0
G00 X3.571 Y25.0
G01 Z-2.0 F150.0
F200.0
G01 X5.952 Y23.81
G00 Z6.0
G00 X4.762 Y25.0
G01 Z-2.0 F150.0
F200.0
G01 X5.952 Y22.619
G00 Z6.0
G00 X9.524 Y25.0
G01 Z-2.0 F150.0
F200.0
G01 X8.333 Y22.619
G00 Z6.0
G00 X10.714 Y25.0
G01 Z-2.0 F150.0
F200.0
G01 X8.333 Y23.81
G00 Z6.0
G00 X5.952 Y1.19
G01 Z-2.0 F150.0
F200.0
G01 X3.571 Y0.0
G00 Z6.0
G00 X5.952 Y2.381
G01 Z-2.0 F150.0
F200.0
G01 X4.762 Y0.0
G00 Z6.0
G00 X8.333 Y2.381
G01 Z-2.0 F150.0
F200.0
G01 X9.524 Y0.0
G00 Z6.0
G00 X8.333 Y1.19
G01 Z-2.0 F150.0
F200.0
G01 X10.714 Y0.0
G00 Z6.0
G00 X32.143 Y13.095
G01 Z-2.0 F150.0
F200.0
G01 X32.143 Y14.286
G01 X33.333 Y14.286
G01 X33.333 Y11.905
G01 X30.952 Y11.905
G01 X30.952 Y14.286
G01 X32.143 Y15.476
G01 X34.524 Y16.667
G01 X39.286 Y16.667
G01 X41.667 Y15.476
G01 X42.857 Y14.286
G01 X44.048 Y11.905
G01 X44.048 Y3.571
G01 X45.238 Y1.19
G01 X46.429 Y0.0
G00 Z6.0
G00 X41.667 Y14.286
G01 Z-2.0 F150.0
F200.0
G01 X42.857 Y11.905
G01 X42.857 Y3.571
G01 X44.048 Y1.19
G00 Z6.0
G00 X39.286 Y16.667
G01 Z-2.0 F150.0
F200.0
G01 X40.476 Y15.476
G01 X41.667 Y13.095
G01 X41.667 Y3.571
G01 X42.857 Y1.19
G01 X46.429 Y0.0
G01 X47.619 Y0.0
G00 Z6.0
G00 X41.667 Y10.714
G01 Z-2.0 F150.0
F200.0
G01 X40.476 Y9.524
G01 X34.524 Y8.333
G01 X30.952 Y7.143
G01 X29.762 Y4.762
G01 X29.762 Y3.571
G01 X30.952 Y1.19
G01 X34.524 Y0.0
G01 X38.095 Y0.0
G01 X40.476 Y1.19
G01 X41.667 Y3.571
G00 Z6.0
G00 X32.143 Y7.143
G01 Z-2.0 F150.0
F200.0
G01 X30.952 Y4.762
G01 X30.952 Y3.571
G01 X32.143 Y1.19
G00 Z6.0
G00 X40.476 Y9.524
G01 Z-2.0 F150.0
F200.0
G01 X35.714 Y8.333
G01 X33.333 Y7.143
G01 X32.143 Y4.762
G01 X32.143 Y3.571
G01 X33.333 Y1.19
G01 X34.524 Y0.0
G00 Z6.0
G00 X55.952 Y16.667
G01 Z-2.0 F150.0
F200.0
G01 X55.952 Y0.0
G00 Z6.0
G00 X57.143 Y15.476
G01 Z-2.0 F150.0
F200.0
G01 X57.143 Y1.19
G00 Z6.0
G00 X52.381 Y16.667
G01 Z-2.0 F150.0
F200.0
G01 X58.333 Y16.667
G01 X58.333 Y0.0
G00 Z6.0
G00 X66.667 Y14.286
G01 Z-2.0 F150.0
F200.0
G01 X66.667 Y15.476
G01 X65.476 Y15.476
G01 X65.476 Y13.095
G01 X67.857 Y13.095
G01 X67.857 Y15.476
G01 X66.667 Y16.667
G01 X64.286 Y16.667
G01 X61.905 Y15.476
G01 X59.524 Y13.095
G01 X58.333 Y9.524
G00 Z6.0
G00 X52.381 Y0.0
G01 Z-2.0 F150.0
F200.0
G01 X61.905 Y0.0
G00 Z6.0
G00 X53.571 Y16.667
G01 Z-2.0 F150.0
F200.0
G01 X55.952 Y15.476
G00 Z6.0
G00 X54.762 Y16.667
G01 Z-2.0 F150.0
F200.0
G01 X55.952 Y14.286
G00 Z6.0
G00 X55.952 Y1.19
G01 Z-2.0 F150.0
F200.0
G01 X53.571 Y0.0
G00 Z6.0
G00 X55.952 Y2.381
G01 Z-2.0 F150.0
F200.0
G01 X54.762 Y0.0
G00 Z6.0
G00 X58.333 Y2.381
G01 Z-2.0 F150.0
F200.0
G01 X59.524 Y0.0
G00 Z6.0
G00 X58.333 Y1.19
G01 Z-2.0 F150.0
F200.0
G01 X60.714 Y0.0
G00 Z6.0
G00 X88.095 Y11.905
G01 Z-2.0 F150.0
F200.0
G01 X88.095 Y13.095
G01 X86.905 Y13.095
G01 X86.905 Y10.714
G01 X89.286 Y10.714
G01 X89.286 Y13.095
G01 X86.905 Y15.476
G01 X84.524 Y16.667
G01 X80.952 Y16.667
G01 X77.381 Y15.476
G01 X75.0 Y13.095
G01 X73.81 Y9.524
G01 X73.81 Y7.143
G01 X75.0 Y3.571
G01 X77.381 Y1.19
G01 X80.952 Y0.0
G01 X83.333 Y0.0
G01 X86.905 Y1.19
G01 X89.286 Y3.571
G00 Z6.0
G00 X76.19 Y13.095
G01 Z-2.0 F150.0
F200.0
G01 X75.0 Y10.714
G01 X75.0 Y5.952
G01 X76.19 Y3.571
G00 Z6.0
G00 X80.952 Y16.667
G01 Z-2.0 F150.0
F200.0
G01 X78.571 Y15.476
G01 X77.381 Y14.286
G01 X76.19 Y10.714
G01 X76.19 Y5.952
G01 X77.381 Y2.381
G01 X78.571 Y1.19
G01 X80.952 Y0.0
G00 Z6.0
G00 X98.81 Y9.524
G01 Z-2.0 F150.0
F200.0
G01 X111.905 Y9.524
G01 X111.905 Y11.905
G01 X110.714 Y14.286
G01 X109.524 Y15.476
G01 X105.952 Y16.667
G01 X103.571 Y16.667
G01 X100.0 Y15.476
G01 X97.619 Y13.095
G01 X96.429 Y9.524
G01 X96.429 Y7.143
G01 X97.619 Y3.571
G01 X100.0 Y1.19
G01 X103.571 Y0.0
G01 X105.952 Y0.0
G01 X109.524 Y1.19
G01 X111.905 Y3.571
G00 Z6.0
G00 X110.714 Y10.714
G01 Z-2.0 F150.0
F200.0
G01 X110.714 Y11.905
G01 X109.524 Y14.286
G00 Z6.0
G00 X98.81 Y13.095
G01 Z-2.0 F150.0
F200.0
G01 X97.619 Y10.714
G01 X97.619 Y5.952
G01 X98.81 Y3.571
G00 Z6.0
G00 X109.524 Y9.524
G01 Z-2.0 F150.0
F200.0
G01 X109.524 Y13.095
G01 X108.333 Y15.476
G01 X105.952 Y16.667
G00 Z6.0
G00 X103.571 Y16.667
G01 Z-2.0 F150.0
F200.0
G01 X101.19 Y15.476
G01 X100.0 Y14.286
G01 X98.81 Y10.714
G01 X98.81 Y5.952
G01 X100.0 Y2.381
G01 X101.19 Y1.19
G01 X103.571 Y0.0
G00 Z6.0
G00 X121.429 Y25.0
G01 Z-2.0 F150.0
F200.0
G01 X121.429 Y0.0
G00 Z6.0
G00 X122.619 Y23.81
G01 Z-2.0 F150.0
F200.0
G01 X122.619 Y1.19
G00 Z6.0
G00 X117.857 Y25.0
G01 Z-2.0 F150.0
F200.0
G01 X123.81 Y25.0
G01 X123.81 Y0.0
G00 Z6.0
G00 X117.857 Y0.0
G01 Z-2.0 F150.0
F200.0
G01 X127.381 Y0.0
G00 Z6.0
G00 X119.048 Y25.0
G01 Z-2.0 F150.0
F200.0
G01 X121.429 Y23.81
G00 Z6.0
G00 X120.238 Y25.0
G01 Z-2.0 F150.0
F200.0
G01 X121.429 Y22.619
G00 Z6.0
G00 X121.429 Y1.19
G01 Z-2.0 F150.0
F200.0
G01 X119.048 Y0.0
G00 Z6.0
G00 X121.429 Y2.381
G01 Z-2.0 F150.0
F200.0
G01 X120.238 Y0.0
G00 Z6.0
G00 X123.81 Y2.381
G01 Z-2.0 F150.0
F200.0
G01 X125.0 Y0.0
G00 Z6.0
G00 X123.81 Y1.19
G01 Z-2.0 F150.0
F200.0
G01 X126.19 Y0.0
G00 Z6.0
G00 X145.238 Y14.286
G01 Z-2.0 F150.0
F200.0
G01 X146.429 Y16.667
G01 X146.429 Y11.905
G01 X145.238 Y14.286
G01 X144.048 Y15.476
G01 X141.667 Y16.667
G01 X136.905 Y16.667
G01 X134.524 Y15.476
G01 X133.333 Y14.286
G01 X133.333 Y11.905
G01 X134.524 Y9.524
G01 X136.905 Y8.333
G01 X142.857 Y7.143
G01 X145.238 Y5.952
G01 X146.429 Y2.381
G00 Z6.0
G00 X134.524 Y15.476
G01 Z-2.0 F150.0
F200.0
G01 X133.333 Y11.905
G00 Z6.0
G00 X134.524 Y10.714
G01 Z-2.0 F150.0
F200.0
G01 X136.905 Y9.524
G01 X142.857 Y8.333
G01 X145.238 Y7.143
G00 Z6.0
G00 X146.429 Y5.952
G01 Z-2.0 F150.0
F200.0
G01 X145.238 Y1.19
G00 Z6.0
G00 X133.333 Y14.286
G01 Z-2.0 F150.0
F200.0
G01 X134.524 Y11.905
G01 X136.905 Y10.714
G01 X142.857 Y9.524
G01 X145.238 Y8.333
G01 X146.429 Y5.952
G01 X146.429 Y2.381
G01 X145.238 Y1.19
G01 X142.857 Y0.0
G01 X138.095 Y0.0
G01 X135.714 Y1.19
G01 X134.524 Y2.381
G01 X133.333 Y4.762
G01 X133.333 Y0.0
G01 X134.524 Y2.381
G00 Z6.0
G00 Z6.0
M05
M30
