(Generated by rollingmill.spiral -- neat spiral)
(Ring: 96, Rotor: 52, Pen: 30, Radius: 40 mm)
(Centre: X0 Y0, scale: 0.541 mm/tooth)
%
O00000001
G21
G90
G17
G54
F200.0
S10000
M03
G00 Z2.0
G00 X40.0 Y0.0
G01 Z-2.0 F50.0
F200.0
G03 X39.264 Y2.035 I-3.183 J0.0
G03 X37.085 Y3.953 I-5.473 J-4.022
G03 X33.545 Y5.641 I-8.826 J-13.95
G03 X28.776 Y7.001 I-11.421 J-31.013
G03 X19.724 Y8.246 I-12.417 J-56.738
G03 X9.083 Y8.377 I-6.433 J-90.508
G03 X-7.884 Y6.381 I4.634 J-112.478
G03 X-19.719 Y3.352 I19.971 J-102.686
G03 X-27.245 Y0.46 I23.662 J-72.805
G03 X-31.824 Y-1.914 I20.848 J-45.812
G03 X-36.63 Y-5.553 I14.044 J-23.542
G03 X-38.01 Y-7.306 I7.899 J-7.641
G03 X-38.733 Y-9.718 I4.372 J-2.625
G03 X-37.829 Y-11.738 I2.985 J0.125
G03 X-36.111 Y-12.913 I3.678 J3.534
G03 X-33.551 Y-13.743 I4.557 J9.695
G03 X-28.287 Y-14.257 I4.825 J22.205
G03 X-21.587 Y-13.822 I0.374 J46.075
G03 X-13.827 Y-12.413 I-9.204 J72.779
G03 X-1.148 Y-8.578 I-22.633 J97.708
G03 X17.142 Y0.136 I-39.3 J106.036
G03 X27.715 Y7.694 I-41.46 J69.177
G03 X31.407 Y11.343 I-28.594 J32.617
G03 X34.581 Y16.181 I-15.729 J13.783
G03 X35.045 Y18.168 I-6.618 J2.592
G03 X34.326 Y20.443 I-3.451 J0.16
G03 X31.975 Y21.728 I-2.885 J-2.484
G03 X28.135 Y21.909 I-2.397 J-10.019
G03 X23.023 Y20.929 I2.221 J-25.388
G03 X16.915 Y18.79 I12.904 J-46.651
G03 X6.592 Y13.577 I29.969 J-72.178
G03 X-4.074 Y6.41 I54.617 J-92.799
G03 X-18.172 Y-6.318 I67.068 J-88.462
G03 X-23.448 Y-12.703 I58.308 J-53.548
G03 X-26.366 Y-17.152 I42.538 J-31.082
G03 X-28.878 Y-22.863 I25.154 J-14.47
G03 X-29.259 Y-25.144 I11.321 J-3.066
G03 X-28.742 Y-27.689 I5.383 J-0.231
G03 X-26.974 Y-29.055 I2.577 J1.509
G03 X-24.894 Y-29.245 I1.479 J4.725
G03 X-22.241 Y-28.695 I-0.784 J10.464
G03 X-17.365 Y-26.488 I-6.798 J21.508
G03 X-11.7 Y-22.7 I-22.784 J40.201
G03 X-5.597 Y-17.503 I-44.758 J58.751
G03 X3.577 Y-7.661 I-69.069 J73.576
G03 X15.102 Y9.278 I-87.102 J71.651
G03 X19.003 Y17.434 I-73.513 J40.172
G03 X20.899 Y22.916 I-51.752 J20.966
G03 X21.976 Y29.565 I-29.039 J8.118
G03 X21.722 Y32.001 I-11.536 J0.025
G03 X20.403 Y34.36 I-4.902 J-1.192
G03 X18.07 Y35.039 I-1.948 J-2.344
G03 X14.896 Y33.973 I0.45 J-6.596
G03 X11.093 Y31.185 I8.764 J-15.943
G03 X6.899 Y26.787 I25.805 J-28.806
G03 X2.566 Y20.975 I49.453 J-41.392
G03 X-3.65 Y10.223 I77.039 J-51.713
G03 X-8.859 Y-1.915 I101.653 J-50.808
G03 X-13.565 Y-19.763 I96.611 J-35.019
G03 X-14.252 Y-27.282 I60.329 J-9.298
G03 X-14.027 Y-31.886 I34.993 J-0.6
G03 X-13.466 Y-34.635 I19.239 J2.495
G03 X-12.054 Y-37.49 I9.005 J2.678
G03 X-10.062 Y-38.699 I2.784 J2.341
G03 X-7.631 Y-38.194 I0.55 J3.45
G03 X-4.925 Y-35.983 I-4.084 J7.762
G03 X-2.114 Y-32.154 I-16.128 J14.786
G03 X0.63 Y-26.868 I-36.404 J22.248
G03 X4.267 Y-16.724 I-65.078 J29.063
G03 X6.931 Y-4.832 I-98.892 J28.391
G03 X8.465 Y13.67 I-111.925 J18.597
G03 X7.551 Y25.861 I-85.648 J-0.295
G03 X5.115 Y34.857 I-43.923 J-7.063
G03 X3.479 Y37.777 I-15.478 J-6.756
G03 X1.67 Y39.507 I-5.987 J-4.449
G03 X-0.221 Y39.991 I-1.765 J-2.959
G03 X-2.102 Y39.215 I0.253 J-3.278
G03 X-3.878 Y37.202 I4.143 J-5.447
G03 X-5.462 Y34.018 I13.143 J-8.524
G03 X-6.773 Y29.765 I28.31 J-11.056
G03 X-8.082 Y21.692 I51.488 J-12.489
G03 X-8.458 Y12.115 I83.681 J-8.088
G03 X-7.137 Y-3.546 I109.163 J1.326
G03 X-4.752 Y-14.974 I110.093 J17.011
G03 X0.46 Y-29.166 I80.245 J21.417
G03 X3.442 Y-34.154 I36.121 J18.212
G03 X6.41 Y-37.385 I15.512 J11.271
G03 X9.152 Y-38.706 I4.303 J5.423
G03 X11.465 Y-38.067 I0.405 J3.039
G03 X12.807 Y-36.328 I-2.821 J3.564
G03 X13.739 Y-33.569 I-9.072 J4.601
G03 X14.208 Y-29.879 I-20.542 J4.487
G03 X13.969 Y-22.85 I-39.749 J2.164
G03 X12.558 Y-14.462 I-69.033 J-7.298
G03 X8.361 Y-0.568 I-97.161 J-21.764
G03 X2.168 Y13.082 I-107.022 J-40.327
G03 X-3.244 Y21.969 I-85.497 J-45.973
G03 X-7.409 Y27.388 I-57.13 J-39.607
G03 X-13.294 Y32.959 I-30.339 J-26.152
G03 X-15.871 Y34.453 I-9.338 J-13.134
G03 X-19.032 Y34.992 I-2.681 J-6.191
G03 X-21.128 Y33.502 I0.546 J-2.988
G03 X-21.883 Y31.127 I4.556 J-2.755
G03 X-21.875 Y27.777 I12.477 J-1.645
G03 X-21.077 Y23.577 I25.778 J2.719
G03 X-18.414 Y16.027 I46.204 J12.056
G03 X-14.115 Y7.517 I73.017 J31.543
G03 X-5.228 Y-5.606 I92.889 J53.333
G03 X2.603 Y-14.565 I88.569 J69.516
G03 X14.427 Y-24.66 I61.447 J60.002
G03 X19.643 Y-27.668 I23.975 J35.546
G03 X23.969 Y-29.127 I8.713 J18.698
G03 X27.131 Y-29.002 I1.293 J7.359
G03 X28.916 Y-27.347 I-1.062 J2.934
G03 X29.179 Y-24.298 I-4.376 J1.914
G03 X27.86 Y-20.065 I-13.74 J-1.959
G03 X24.985 Y-14.915 I-29.77 J-13.243
G03 X20.668 Y-9.161 I-48.677 J-32.018
G03 X11.942 Y-0.129 I-67.7 J-56.679
G03 X1.4 Y8.377 I-75.843 J-83.207
G03 X-15.097 Y18.004 I-60.643 J-84.974
G03 X-22.429 Y20.759 I-25.658 J-57.146
G03 X-28.437 Y21.933 I-9.385 J-32.067
G03 X-32.679 Y21.518 I-0.903 J-12.641
G03 X-34.825 Y19.62 I1.347 J-3.685
G03 X-35.045 Y18.177 I3.035 J-1.202
G03 X-34.28 Y15.492 I6.035 J0.268
G03 X-32.212 Y12.304 I13.449 J6.462
G03 X-28.899 Y8.766 I24.001 J19.154
G03 X-21.848 Y3.16 I37.857 J40.374
G03 X-12.804 Y-2.317 I50.271 J72.805
G03 X2.855 Y-9.195 I52.693 J98.699
G03 X14.691 Y-12.609 I35.243 J99.977
G03 X22.756 Y-13.958 I17.032 J76.989
G03 X28.007 Y-14.258 I5.619 J52.352
G03 X34.162 Y-13.598 I-0.024 J29.233
G03 X36.327 Y-12.807 I-3.009 J11.607
G03 X38.305 Y-11.125 I-2.514 J4.958
G03 X38.675 Y-8.955 I-2.553 J1.552
G03 X37.877 Y-7.092 I-4.623 J-0.877
G03 X36.172 Y-5.1 I-8.283 J-5.365
G03 X31.997 Y-2.018 I-14.659 J-15.487
G03 X26.077 Y0.976 I-22.853 J-37.831
G03 X18.723 Y3.669 I-28.223 J-65.678
G03 X5.867 Y6.754 I-29.478 J-94.531
G03 X-14.401 Y8.46 I-19.599 J-111.581
G03 X-27.472 Y7.268 I0.901 J-82.136
G03 X-32.58 Y5.977 I8.414 J-44.041
G03 X-37.887 Y3.396 I6.846 J-20.824
G03 X-39.353 Y1.911 I4.58 J-5.985
G03 X-39.969 Y-0.421 I2.949 J-2.027
G03 X-38.668 Y-2.72 I3.627 J0.534
G03 X-35.513 Y-4.816 I6.894 J6.959
G03 X-30.659 Y-6.546 I10.635 J22.161
G03 X-24.344 Y-7.775 I12.17 J45.681
G03 X-12.827 Y-8.465 I10.353 J76.406
G03 X0.004 Y-7.628 I-0.543 J107.165
G03 X18.655 Y-3.69 I-13.578 J110.456
G03 X26.472 Y-0.805 I-23.736 J76.33
G03 X31.268 Y1.589 I-21.439 J48.95
G03 X36.367 Y5.288 I-14.728 J25.663
G03 X37.869 Y7.08 I-8.421 J8.586
G03 X38.736 Y9.556 I-4.627 J3.01
G03 X37.922 Y11.637 I-2.988 J0.032
G03 X36.237 Y12.852 I-3.617 J-3.239
G03 X33.68 Y13.714 I-4.54 J-9.245
G03 X28.368 Y14.256 I-4.898 J-21.712
G03 X21.57 Y13.82 I-0.47 J-45.851
G03 X13.679 Y12.379 I9.248 J-72.97
G03 X0.79 Y8.444 I22.9 J-98.113
G03 X-17.704 Y-0.476 I39.556 J-105.638
G03 X-25.177 Y-5.599 I43.579 J-71.576
G03 X-29.567 Y-9.407 I34.32 J-44.008
G03 X-33.825 Y-14.634 I21.046 J-21.491
G03 X-34.818 Y-16.873 I9.929 J-5.742
G03 X-34.842 Y-19.575 I4.81 J-1.394
G03 X-33.142 Y-21.323 I2.858 J1.079
G03 X-29.836 Y-21.974 I2.905 J6.028
G03 X-25.12 Y-21.444 I0.316 J18.41
G03 X-19.261 Y-19.709 I-8.12 J38.195
G03 X-12.577 Y-16.817 I-22.415 J60.966
G03 X-1.789 Y-10.572 I-41.198 J83.611
G03 X8.8 Y-2.627 I-62.86 J94.815
G03 X21.767 Y10.504 I-66.029 J78.167
G03 X26.083 Y16.668 I-47.075 J37.558
G03 X28.154 Y20.754 I-29.436 J17.487
G03 X29.012 Y23.399 I-17.423 J7.109
G03 X29.165 Y26.543 I-8.815 J2.005
G03 X27.989 Y28.542 I-3.471 J-0.697
G03 X25.577 Y29.265 I-2.172 J-2.86
G03 X22.075 Y28.642 I-0.174 J-9.171
G03 X17.681 Y26.665 I7.059 J-21.566
G03 X12.625 Y23.391 I21.23 J-38.327
G03 X4.37 Y16.33 I42.882 J-58.49
G03 X-3.884 Y7.286 I72.351 J-74.32
G03 X-14.403 Y-8.022 I87.759 J-71.571
G03 X-19.617 Y-19.011 I73.314 J-41.515
G03 X-21.139 Y-23.815 I47.044 J-17.547
G03 X-21.976 Y-29.684 I26.916 J-6.835
G03 X-21.749 Y-31.887 I11.455 J0.071
G03 X-20.64 Y-34.141 I5.27 J1.193
G03 X-18.688 Y-35.037 I2.136 J2.079
G03 X-16.743 Y-34.779 I0.379 J4.61
G03 X-14.453 Y-33.719 I-2.819 J9.093
G03 X-10.523 Y-30.662 I-10.451 J17.491
G03 X-6.226 Y-25.968 I-28.905 J30.772
G03 X-1.827 Y-19.855 I-53.508 J43.148
G03 X4.4 Y-8.694 I-80.934 J52.473
G03 X11.43 Y9.96 I-102.455 J49.264
G03 X13.974 Y22.9 I-84.535 J23.336
G03 X14.256 Y28.329 I-51.508 J5.402
G03 X13.482 Y34.581 I-27.691 J-0.255
G03 X12.602 Y36.704 I-10.219 J-2.991
G03 X10.758 Y38.495 I-4.142 J-2.421
G03 X8.412 Y38.531 I-1.216 J-2.794
G03 X5.729 Y36.797 I2.053 J-6.119
G03 X2.886 Y33.359 I11.78 J-12.635
G03 X0.065 Y28.365 I30.238 J-20.377
G03 X-2.561 Y22.036 I55.006 J-26.534
G03 X-5.799 Y10.682 I83.859 J-30.05
G03 X-7.841 Y-1.856 I109.532 J-24.28
G03 X-8.223 Y-20.046 I106.425 J-11.331
G03 X-7.223 Y-27.703 I70.246 J5.276
G03 X-6.026 Y-32.428 I43.678 J8.548
G03 X-3.671 Y-37.51 I21.987 J7.104
G03 X-2.316 Y-39.042 I7.231 J5.028
G03 X-0.172 Y-39.995 I2.707 J3.204
G03 X1.984 Y-39.302 I0.187 J3.116
G03 X4.011 Y-36.992 I-3.929 J5.493
G03 X5.779 Y-33.163 I-14.604 J9.064
G03 X7.169 Y-27.976 I-33.201 J11.679
G03 X8.344 Y-18.141 I-60.861 J12.257
G03 X8.251 Y-6.678 I-95.383 J4.963
G03 X5.683 Y11.198 I-113.584 J-7.196
G03 X2.147 Y23.165 I-94.773 J-21.499
G03 X-2.221 Y32.329 I-56.007 J-21.073
G03 X-4.511 Y35.515 I-24.323 J-15.063
G03 X-7.818 Y38.288 I-9.919 J-8.472
G03 X-9.33 Y38.725 I-2.049 J-4.25
G03 X-11.314 Y38.18 I-0.242 J-3.003
G03 X-12.52 Y36.842 I2.358 J-3.335
G03 X-13.77 Y33.422 I7.691 J-4.752
G03 X-14.255 Y28.472 I22.433 J-4.694
G03 X-13.901 Y22.242 I44.772 J-0.584
G03 X-11.761 Y11.187 I73.782 J8.551
G03 X-7.824 Y-0.83 I101.912 J26.731
G03 X0.561 Y-17.843 I104.622 J40.989
G03 X5.304 Y-24.795 I71.744 J43.854
G03 X12.21 Y-32.136 I40.028 J30.74
G03 X15.264 Y-34.167 I12.616 J15.653
G03 X17.873 Y-35.022 I4.067 J8.009
G03 X19.918 Y-34.687 I0.422 J3.834
G03 X21.299 Y-33.191 I-1.462 J2.735
G03 X21.938 Y-30.604 I-5.499 J2.73
G03 X21.783 Y-27.031 I-14.504 J1.161
G03 X20.812 Y-22.61 I-28.953 J-4.043
G03 X17.851 Y-14.759 I-50.243 J-14.462
G03 X13.238 Y-6.02 I-76.709 J-34.906
G03 X3.925 Y7.236 I-94.146 J-56.244
G03 X-4.119 Y16.085 I-85.569 J-69.704
G03 X-10.216 Y21.536 I-62.103 J-63.33
G03 X-18.612 Y27.163 I-36.011 J-44.659
G03 X-22.16 Y28.669 I-12.038 J-23.415
G03 X-26.303 Y29.206 I-3.53 J-10.973
G03 X-28.727 Y27.715 I0.53 J-3.576
G03 X-29.213 Y26.259 I3.054 J-1.829
G03 X-28.983 Y23.279 I6.937 J-0.965
G03 X-27.589 Y19.476 I16.72 J3.973
G03 X-25.058 Y15.026 I31.079 J14.737
G03 X-19.303 Y7.573 I50.314 J32.902
G03 X-11.607 Y-0.176 I69.649 J61.482
G03 X2.157 Y-10.815 I75.935 J84.011
G03 X12.811 Y-16.932 I56.016 J85.23
G03 X20.174 Y-20.036 I31.536 J64.517
G03 X25.012 Y-21.421 I14.824 J42.649
G03 X30.733 Y-21.927 I4.88 J22.568
G03 X32.763 Y-21.486 I-0.783 J8.507
G03 X34.632 Y-20.016 I-1.443 J3.757
G03 X34.996 Y-17.676 I-2.785 J1.632
G03 X33.815 Y-14.616 I-7.424 J-1.108
G03 X31.114 Y-11.015 I-16.594 J-9.629
G03 X26.993 Y-7.072 I-28.73 J-25.91
G03 X18.518 Y-0.977 I-43.092 J-50.978
G03 X8.018 Y4.723 I-52.701 J-84.567
G03 X-9.279 Y11.24 I-48.686 J-103.001
G03 X-21.433 Y13.802 I-24.737 J-87.23
G03 X-31.15 Y14.111 I-6.458 J-50.095
G03 X-34.682 Y13.452 I2.076 J-20.916
G03 X-36.645 Y12.636 I3.041 J-10.088
G03 X-38.398 Y10.96 I2.486 J-4.354
G03 X-38.651 Y8.842 I2.633 J-1.389
G03 X-37.842 Y7.038 I4.76 J1.054
G03 X-36.189 Y5.117 I8.336 J5.498
G03 X-32.205 Y2.145 I14.469 J15.24
G03 X-26.589 Y-0.754 I22.398 J36.509
G03 X-19.612 Y-3.387 I27.848 J63.222
G03 X-7.364 Y-6.481 I29.696 J91.777
G03 X12.258 Y-8.46 I21.184 J111.744
G03 X25.342 Y-7.632 I0.952 J88.729
G03 X30.673 Y-6.542 I-8.015 J52.79
G03 X36.604 Y-4.243 I-7.533 J28.233
G03 X38.508 Y-2.874 I-5.799 J10.074
G03 X39.922 Y-0.667 I-3.591 J3.857
G03 X40.0 Y0.0 I-2.885 J0.674
G00 Z2.0
M05
M30
